X:1
T:Litchfield
%%score 1 2 3
L:1/8
M:4/4
K:C
V:1 treble nm="Soprano" snm="S."
V:2 treble-8 nm="Tenor" snm="T."
V:3 bass nm="Bass" snm="B."
V:1
 A4 A2 B2 | c2 B2 c2 d2 | e8 | e4 d2 c2 | c2 B2 c4 | e4 d2 e2 | c2 B2 A2 A2 | ^G8 | c4 B2 A2 | %9
 A2 ^G2 A4 |] %10
V:2
 c4 c2 d2 | e2 d2 c2 A2 | G8 | c4 B2 e2 | d2 d2 c4 | c4 B2 B2 | A2 B2 c2 d2 | e8 | e4 d2 c2 | %9
 B2 B2 A4 |] %10
V:3
 A,4 A,2 G,2 | C,2 G,2 A,2 F,2 | E,8 | C,4 G,2 E,2 | F,2 G,2 C,4 | C,4 G,2 ^G,2 | A,2 G,2 F,2 F,2 | %7
 E,8 | C,4 G,2 A,2 | D,2 E,2 A,,4 |] %10

